optimized/solid/clipboard.svg

<svg xmlns="http://www.w3.org/2000/svg" viewBox="0 0 20 20" fill="currentColor" aria-hidden="true">
  <path d="M8 3C8 2.44772 8.44772 2 9 2H11C11.5523 2 12 2.44772 12 3C12 3.55228 11.5523 4 11 4H9C8.44772 4 8 3.55228 8 3Z"/>
  <path d="M6 3C4.89543 3 4 3.89543 4 5V16C4 17.1046 4.89543 18 6 18H14C15.1046 18 16 17.1046 16 16V5C16 3.89543 15.1046 3 14 3C14 4.65685 12.6569 6 11 6H9C7.34315 6 6 4.65685 6 3Z"/>
</svg>

<svg xmlns="http://www.w3.org/2000/svg" viewBox="0 0 20 20" fill="currentColor" aria-hidden="true">
  <path d="M8 3a1 1 0 011-1h2a1 1 0 110 2H9a1 1 0 01-1-1z"/>
  <path d="M6 3a2 2 0 00-2 2v11a2 2 0 002 2h8a2 2 0 002-2V5a2 2 0 00-2-2 3 3 0 01-3 3H9a3 3 0 01-3-3z"/>
</svg>
